; generated by PrusaSlicer 2.9.3 on 2025-09-16 at 12:46:13 UTC
;
; external perimeters extrusion width = 2.25mm
; perimeters extrusion width = 2.25mm
; infill extrusion width = 2.25mm
; solid infill extrusion width = 2.25mm
; top infill extrusion width = 2.00mm
; first layer extrusion width = 2.10mm
;TYPE:Custom
G28 ; home all axes
G1 Z5 F5000 ; lift nozzle
G21 ; set units to millimeters
G90 ; use absolute coordinates
M82 ; use absolute distances for extrusion
; Filament gcode
M107
;LAYER_CHANGE
;Z:0.6
;HEIGHT:0.6
G1 Z.6 F7800
G1 X-229.575 Y203
;TYPE:Skirt/Brim
;WIDTH:2.1
G1 F18000
G1 X-246.398 Y183.974
G1 X-264.685 Y162.737
G1 X-276.723 Y148.397
G1 X-294.24 Y126.905
G1 X-305.575 Y112.52
G1 X-321.687 Y91.243
G1 X-331.883 Y77.131
G1 X-341.449 Y63.29
G1 X-350.363 Y49.701
G1 X-358.556 Y36.411
G1 X-365.965 Y23.451
G1 X-372.551 Y10.732
G1 X-378.584 Y-2.35
G1 X-383.977 Y-15.591
G1 X-388.8 Y-29.157
G1 X-392.879 Y-42.463
G1 X-396.41 Y-56.049
G1 X-399.343 Y-69.707
G1 X-401.715 Y-83.598
G1 X-403.476 Y-97.333
G1 X-404.671 Y-111.075
G1 X-405.312 Y-124.804
G1 X-405.428 Y-131.657
G1 X-405.263 Y-145.153
G1 X-404.974 Y-152.138
G1 X-404.032 Y-165.532
G1 X-403.346 Y-172.449
G1 X-401.65 Y-185.695
G1 X-400.58 Y-192.522
G1 X-398.155 Y-205.573
G1 X-396.711 Y-212.287
G1 X-393.58 Y-225.097
G1 X-391.776 Y-231.676
G1 X-387.962 Y-244.2
G1 X-385.808 Y-250.62
G1 X-381.333 Y-262.811
G1 X-378.841 Y-269.051
G1 X-373.729 Y-280.863
G1 X-370.909 Y-286.899
G1 X-365.183 Y-298.287
G1 X-358.958 Y-309.527
G1 X-355.659 Y-315.024
G1 X-348.613 Y-325.87
G1 X-344.99 Y-331.043
G1 X-337.574 Y-340.915
G1 X-333.548 Y-345.922
G1 X-325.613 Y-355.164
G1 X-321.342 Y-359.833
G1 X-312.967 Y-368.441
G1 X-308.491 Y-372.772
G1 X-299.752 Y-380.741
G1 X-295.111 Y-384.732
G1 X-286.087 Y-392.057
G1 X-281.319 Y-395.71
G1 X-272.085 Y-402.386
G1 X-262.485 Y-408.808
G1 X-253.091 Y-414.613
G1 X-248.172 Y-417.471
G1 X-233.968 Y-425.06
G1 X-219.698 Y-431.72
G1 X-210.122 Y-435.657
G1 X-196.203 Y-440.611
G1 X-182.826 Y-444.484
G1 X-178.21 Y-445.607
G1 X-169.734 Y-447.368
G1 X-161.073 Y-448.733
G1 X-152.9 Y-449.578
G1 X32.926 Y-461.097
G1 X39.677 Y-461.293
G1 X46.791 Y-461.161
G1 X54.073 Y-460.707
G1 X61.509 Y-459.949
G1 X69.084 Y-458.902
G1 X76.784 Y-457.583
G1 X84.593 Y-456.004
G1 X92.495 Y-454.18
G1 X100.676 Y-452.068
G1 X108.698 Y-449.791
G1 X124.855 Y-444.632
G1 X132.953 Y-441.773
G1 X148.953 Y-435.619
G1 X165.054 Y-428.766
G1 X180.535 Y-421.551
G1 X188.301 Y-417.694
G1 X203.127 Y-409.862
G1 X210.281 Y-405.847
G1 X223.838 Y-397.761
G1 X236.592 Y-389.483
G1 X248.389 Y-381.083
G1 X259.153 Y-372.839
G1 X269.581 Y-364.477
G1 X284.837 Y-351.462
G1 X299.537 Y-337.856
G1 X308.79 Y-328.64
G1 X313.442 Y-323.785
G1 X322.193 Y-314.194
G1 X326.487 Y-309.243
G1 X334.903 Y-298.998
G1 X342.739 Y-288.716
G1 X346.562 Y-283.395
G1 X354 Y-272.365
G1 X360.824 Y-261.312
G1 X364.122 Y-255.583
G1 X370.47 Y-243.694
G1 X376.184 Y-231.793
G1 X378.906 Y-225.619
G1 X383.985 Y-212.993
G1 X386.403 Y-206.351
G1 X390.657 Y-193.334
G1 X394.452 Y-179.734
G1 X397.747 Y-165.537
G1 X400.439 Y-151.114
G1 X402.54 Y-136.45
G1 X403.389 Y-128.86
G1 X404.642 Y-113.347
G1 X405.295 Y-97.206
G1 X405.385 Y-88.942
G1 X405.225 Y-80.87
G1 X404.68 Y-72.023
G1 X403.811 Y-63.533
G1 X402.669 Y-55.343
G1 X401.123 Y-46.527
G1 X399.334 Y-38.027
G1 X397.335 Y-29.794
G1 X394.943 Y-21.069
G1 X392.372 Y-12.626
G1 X389.641 Y-4.423
G1 X386.549 Y4.154
G1 X379.916 Y20.743
G1 X376.332 Y28.947
G1 X368.698 Y45.137
G1 X360.605 Y60.862
G1 X351.964 Y76.432
G1 X343.146 Y91.317
G1 X334.017 Y105.869
G1 X324.867 Y119.733
G1 X311.279 Y139.214
G1 X302.407 Y151.327
G1 X293.842 Y162.623
G1 X278.076 Y182.504
G1 X262.074 Y201.594
G1 X243.754 Y222.422
G1 X174.186 Y298.213
G1 X26.343 Y458.391
G1 X24.26 Y460.059
G1 X21.777 Y461.039
G1 X19.115 Y461.245
G1 X16.512 Y460.656
G1 X13.306 Y458.516
G1 X-163.294 Y274.632
G1 X-185.91 Y250.717
G1 X-209.712 Y224.995
G1 X-228.01 Y204.769
G1 X-229.376 Y203.225
G1 X-227.896 Y201.895 F7800
G1 F18000
G1 X-232.671 Y196.579
G1 X-251.032 Y175.639
G1 X-269.206 Y154.325
G1 X-281.116 Y139.976
G1 X-298.39 Y118.507
G1 X-309.504 Y104.187
G1 X-325.234 Y83.04
G1 X-335.071 Y69.134
G1 X-344.336 Y55.39
G1 X-352.868 Y41.994
G1 X-360.641 Y28.929
G1 X-367.624 Y16.137
G1 X-373.868 Y3.367
G1 X-379.543 Y-9.716
G1 X-384.586 Y-22.946
G1 X-389.007 Y-36.302
G1 X-392.818 Y-49.762
G1 X-396.028 Y-63.304
G1 X-398.649 Y-76.908
G1 X-400.691 Y-90.552
G1 X-402.166 Y-104.215
G1 X-403.084 Y-117.876
G1 X-403.455 Y-131.515
G1 X-403.292 Y-145.109
G1 X-403.006 Y-152.018
G1 X-402.067 Y-165.375
G1 X-401.388 Y-172.218
G1 X-399.698 Y-185.426
G1 X-398.638 Y-192.18
G1 X-396.22 Y-205.195
G1 X-394.792 Y-211.837
G1 X-391.67 Y-224.612
G1 X-389.885 Y-231.119
G1 X-386.081 Y-243.608
G1 X-383.951 Y-249.958
G1 X-379.489 Y-262.114
G1 X-377.025 Y-268.285
G1 X-371.928 Y-280.063
G1 X-369.14 Y-286.031
G1 X-363.431 Y-297.384
G1 X-357.16 Y-308.697
G1 X-350.582 Y-319.361
G1 X-346.998 Y-324.74
G1 X-343.401 Y-329.877
G1 X-336.011 Y-339.714
G1 X-332.039 Y-344.654
G1 X-324.131 Y-353.865
G1 X-319.915 Y-358.473
G1 X-311.568 Y-367.052
G1 X-307.148 Y-371.328
G1 X-298.438 Y-379.271
G1 X-293.854 Y-383.213
G1 X-284.859 Y-390.515
G1 X-280.149 Y-394.123
G1 X-270.945 Y-400.778
G1 X-261.434 Y-407.141
G1 X-252.07 Y-412.926
G1 X-247.212 Y-415.749
G1 X-233.07 Y-423.305
G1 X-218.898 Y-429.918
G1 X-209.424 Y-433.813
G1 X-195.616 Y-438.729
G1 X-182.318 Y-442.579
G1 X-177.787 Y-443.682
G1 X-169.356 Y-445.433
G1 X-161.024 Y-446.751
G1 X-152.778 Y-447.61
G1 X33.048 Y-459.13
G1 X39.733 Y-459.322
G1 X46.751 Y-459.19
G1 X53.948 Y-458.739
G1 X61.307 Y-457.988
G1 X68.813 Y-456.95
G1 X76.45 Y-455.64
G1 X84.202 Y-454.072
G1 X92.05 Y-452.259
G1 X108.119 Y-447.907
G1 X124.199 Y-442.773
G1 X132.262 Y-439.927
G1 X148.228 Y-433.786
G1 X164.236 Y-426.972
G1 X179.688 Y-419.771
G1 X187.396 Y-415.943
G1 X202.162 Y-408.143
G1 X209.287 Y-404.145
G1 X222.812 Y-396.077
G1 X235.502 Y-387.841
G1 X247.199 Y-379.511
G1 X257.928 Y-371.294
G1 X268.339 Y-362.946
G1 X283.538 Y-349.979
G1 X298.156 Y-336.449
G1 X307.389 Y-327.254
G1 X311.997 Y-322.445
G1 X320.725 Y-312.877
G1 X324.997 Y-307.952
G1 X333.347 Y-297.789
G1 X341.16 Y-287.536
G1 X344.96 Y-282.246
G1 X352.333 Y-271.313
G1 X359.136 Y-260.293
G1 X362.414 Y-254.6
G1 X368.703 Y-242.822
G1 X374.398 Y-230.959
G1 X377.103 Y-224.825
G1 X382.148 Y-212.278
G1 X384.536 Y-205.718
G1 X388.777 Y-192.743
G1 X392.548 Y-179.226
G1 X395.814 Y-165.154
G1 X398.491 Y-150.814
G1 X400.586 Y-136.191
G1 X401.43 Y-128.642
G1 X402.675 Y-113.209
G1 X403.324 Y-97.184
G1 X403.414 Y-88.981
G1 X403.254 Y-80.909
G1 X402.719 Y-72.223
G1 X401.859 Y-63.805
G1 X400.717 Y-55.615
G1 X399.194 Y-46.932
G1 X397.418 Y-38.492
G1 X395.419 Y-30.259
G1 X393.057 Y-21.643
G1 X390.501 Y-13.248
G1 X387.77 Y-5.046
G1 X384.71 Y3.443
G1 X378.109 Y19.954
G1 X374.541 Y28.123
G1 X366.938 Y44.249
G1 X358.859 Y59.946
G1 X350.261 Y75.439
G1 X341.457 Y90.301
G1 X332.366 Y104.792
G1 X323.239 Y118.621
G1 X309.673 Y138.071
G1 X300.822 Y150.155
G1 X292.276 Y161.425
G1 X276.545 Y181.263
G1 X260.577 Y200.311
G1 X242.294 Y221.097
G1 X172.736 Y296.878
G1 X24.896 Y457.053
G1 X23.028 Y458.488
G1 X20.79 Y459.221
G1 X18.435 Y459.169
G1 X16.231 Y458.337
G1 X14.728 Y457.15
G1 X-161.88 Y273.258
G1 X-190.312 Y243.113
G1 X-214.322 Y217.008
G1 X-227.695 Y202.118
G1 X-327.037 Y-331.734 F7800
;TYPE:Perimeter
;WIDTH:2.1
G1 F18000
G1 X-326.548 Y-332.37
G1 X-322.834 Y-336.989
G1 X-319.037 Y-341.508
G1 X-315.161 Y-345.927
G1 X-311.211 Y-350.245
G1 X-307.19 Y-354.461
G1 X-303.104 Y-358.577
G1 X-298.955 Y-362.59
G1 X-294.749 Y-366.501
G1 X-290.49 Y-370.31
G1 X-286.182 Y-374.015
G1 X-281.829 Y-377.617
G1 X-277.435 Y-381.115
G1 X-273.005 Y-384.508
G1 X-268.543 Y-387.797
G1 X-264.053 Y-390.981
G1 X-259.54 Y-394.059
G1 X-255.008 Y-397.032
G1 X-250.462 Y-399.897
G1 X-245.904 Y-402.657
G1 X-241.341 Y-405.309
G1 X-236.776 Y-407.854
G1 X-232.214 Y-410.291
G1 X-227.659 Y-412.619
G1 X-223.115 Y-414.839
G1 X-218.587 Y-416.95
G1 X-214.079 Y-418.952
G1 X-209.596 Y-420.844
G1 X-205.142 Y-422.626
G1 X-200.722 Y-424.298
G1 X-196.34 Y-425.859
G1 X-192.001 Y-427.309
G1 X-187.709 Y-428.648
G1 X-183.468 Y-429.876
G1 X-179.284 Y-430.991
G1 X-175.161 Y-431.995
G1 X-171.104 Y-432.887
G1 X-167.117 Y-433.666
G1 X-163.205 Y-434.333
G1 X-159.374 Y-434.887
G1 X-155.627 Y-435.329
G1 X-151.97 Y-435.659
G1 X-148.407 Y-435.877
G1 X-144.932 Y-435.983
G1 X-141.556 Y-435.994
G1 X-138.312 Y-435.929
G1 X-135.21 Y-435.791
G1 X-132.249 Y-435.581
G1 X-129.427 Y-435.303
G1 X-126.741 Y-434.96
G1 X-124.191 Y-434.555
G1 X-121.773 Y-434.091
G1 X-119.487 Y-433.571
G1 X-117.329 Y-432.998
G1 X-115.298 Y-432.375
G1 X-113.391 Y-431.707
G1 X-111.606 Y-430.996
G1 X-109.939 Y-430.246
G1 X-108.389 Y-429.46
G1 X-106.95 Y-428.642
G1 X-105.62 Y-427.794
G1 X-104.394 Y-426.92
G1 X-103.269 Y-426.022
G1 X-102.24 Y-425.102
G1 X-101.303 Y-424.162
G1 X-100.453 Y-423.203
G1 X-99.685 Y-422.227
G1 X-98.996 Y-421.234
G1 X-98.382 Y-420.223
G1 X-97.839 Y-419.196
G1 X-97.364 Y-418.15
G1 X-96.954 Y-417.087
G1 X-96.608 Y-416.006
G1 X-96.324 Y-414.907
G1 X-96.1 Y-413.79
G1 X-95.935 Y-412.656
G1 X-95.829 Y-411.506
G1 X-95.78 Y-410.341
G1 X-95.787 Y-409.162
G1 X-95.85 Y-407.973
G1 X-95.968 Y-406.774
G1 X-96.14 Y-405.568
G1 X-96.364 Y-404.357
G1 X-96.966 Y-401.933
G1 X-97.761 Y-399.522
G1 X-98.72 Y-397.186
G1 X-99.898 Y-394.795
G1 X-100.486 Y-393.738
G1 X-101.85 Y-391.542
G1 X-102.471 Y-390.694
G1 X-103.176 Y-389.883
G1 X-103.996 Y-389.076
G1 X-104.941 Y-388.269
G1 X-106.016 Y-387.461
G1 X-107.225 Y-386.651
G1 X-108.57 Y-385.84
G1 X-110.05 Y-385.028
G1 X-111.638 Y-384.225
G1 X-115.318 Y-382.551
G1 X-117.284 Y-381.728
G1 X-121.684 Y-379.997
G1 X-140.809 Y-372.96
G1 X-150.788 Y-369.132
G1 X-157.869 Y-366.258
G1 X-161.704 Y-364.639
G1 X-169.415 Y-361.237
G1 X-173.54 Y-359.334
G1 X-177.726 Y-357.341
G1 X-181.946 Y-355.269
G1 X-186.324 Y-353.05
G1 X-190.863 Y-350.675
G1 X-195.448 Y-348.197
G1 X-200.136 Y-345.583
G1 X-204.867 Y-342.86
G1 X-209.817 Y-339.921
G1 X-214.804 Y-336.865
G1 X-219.843 Y-333.682
G1 X-225.093 Y-330.262
G1 X-230.328 Y-326.748
G1 X-235.775 Y-322.982
G1 X-241.264 Y-319.073
G1 X-246.852 Y-314.976
G1 X-252.484 Y-310.728
G1 X-257.671 Y-306.706
G1 X-264.149 Y-301.553
G1 X-270.176 Y-296.613
G1 X-276.201 Y-291.541
G1 X-282.364 Y-286.047
G1 X-288.083 Y-280.484
G1 X-293.464 Y-274.769
G1 X-298.374 Y-269.076
G1 X-303.236 Y-262.905
G1 X-307.635 Y-256.769
G1 X-311.716 Y-250.505
G1 X-315.484 Y-244.121
G1 X-318.848 Y-237.814
G1 X-322.103 Y-231.017
G1 X-324.964 Y-224.309
G1 X-327.535 Y-217.507
G1 X-329.82 Y-210.616
G1 X-331.776 Y-203.829
G1 X-333.558 Y-196.594
G1 X-335.023 Y-189.474
G1 X-336.227 Y-182.291
G1 X-337.157 Y-175.218
G1 X-337.875 Y-167.753
G1 X-338.332 Y-160.411
G1 X-338.549 Y-153.182
G1 X-338.54 Y-145.608
G1 X-338.303 Y-138.157
G1 X-337.858 Y-130.819
G1 X-337.18 Y-123.184
G1 X-336.304 Y-115.673
G1 X-335.247 Y-108.275
G1 X-333.956 Y-100.627
G1 X-332.494 Y-93.102
G1 X-330.874 Y-85.694
G1 X-329.025 Y-78.077
G1 X-327.029 Y-70.586
G1 X-324.866 Y-63.116
G1 X-322.542 Y-55.674
G1 X-320.063 Y-48.264
G1 X-317.438 Y-40.901
G1 X-314.661 Y-33.56
G1 X-311.783 Y-26.36
G1 X-308.739 Y-19.127
G1 X-305.568 Y-11.953
G1 X-302.238 Y-4.766
G1 X-298.827 Y2.275
G1 X-295.305 Y9.241
G1 X-291.678 Y16.128
G1 X-287.991 Y22.861
G1 X-284.17 Y29.575
G1 X-280.26 Y36.195
G1 X-276.225 Y42.781
G1 X-272.153 Y49.194
G1 X-268.005 Y55.501
G1 X-263.651 Y61.879
G1 X-258.97 Y68.498
G1 X-254.014 Y75.295
G1 X-248.689 Y82.406
G1 X-243.123 Y89.666
G1 X-237.296 Y97.11
G1 X-231.226 Y104.724
G1 X-224.951 Y112.464
G1 X-218.421 Y120.398
G1 X-211.72 Y128.429
G1 X-204.845 Y136.568
G1 X-197.827 Y144.781
G1 X-183.328 Y161.491
G1 X-168.431 Y178.353
G1 X-160.857 Y186.826
G1 X-145.567 Y203.75
G1 X-122.524 Y228.862
G1 X-92.325 Y261.181
G1 X-70.661 Y284.018
G1 X-37.854 Y318.121
G1 X-15.771 Y340.772
G1 X16.422 Y373.319
G1 X16.967 Y373.795
G1 X17.415 Y374.094
G1 X17.898 Y374.345
G1 X18.394 Y374.538
G1 X18.894 Y374.672
G1 X19.388 Y374.752
G1 X19.991 Y374.781
G1 X20.606 Y374.734
G1 X21.112 Y374.636
G1 X21.621 Y374.481
G1 X22.122 Y374.265
G1 X22.607 Y373.988
G1 X23.063 Y373.654
G1 X23.481 Y373.266
G1 X35.34 Y360.911
G1 X47.358 Y348.173
G1 X58.742 Y335.955
G1 X71.95 Y321.609
G1 X86.76 Y305.316
G1 X108.66 Y280.829
G1 X120.447 Y267.453
G1 X132.714 Y253.383
G1 X145.357 Y238.716
G1 X165.022 Y215.555
G1 X178.473 Y199.455
G1 X192.143 Y182.864
G1 X205.951 Y165.854
G1 X212.935 Y157.15
G1 X226.907 Y139.518
G1 X240.902 Y121.546
G1 X254.838 Y103.309
G1 X261.797 Y94.065
G1 X268.764 Y84.713
G1 X275.524 Y75.353
G1 X281.889 Y66.071
G1 X287.797 Y56.976
G1 X293.393 Y47.856
G1 X298.68 Y38.699
G1 X303.535 Y29.736
G1 X308.031 Y20.853
G1 X312.175 Y12.053
G1 X315.976 Y3.335
G1 X319.44 Y-5.299
G1 X322.526 Y-13.706
G1 X325.344 Y-22.166
G1 X327.849 Y-30.54
G1 X330.086 Y-38.978
G1 X331.949 Y-47.026
G1 X333.559 Y-55.135
G1 X334.886 Y-63.155
G1 X335.938 Y-71.082
G1 X336.735 Y-79.075
G1 X337.246 Y-86.658
G1 X337.518 Y-94.305
G1 X337.544 Y-102.011
G1 X337.331 Y-109.462
G1 X336.89 Y-116.814
G1 X336.229 Y-124.067
G1 X335.356 Y-131.219
G1 X334.279 Y-138.269
G1 X333.007 Y-145.217
G1 X331.547 Y-152.06
G1 X329.942 Y-158.666
G1 X328.134 Y-165.304
G1 X326.162 Y-171.836
G1 X323.994 Y-178.381
G1 X321.719 Y-184.694
G1 X319.35 Y-190.788
G1 X316.806 Y-196.888
G1 X314.14 Y-202.879
G1 X311.312 Y-208.858
G1 X308.424 Y-214.624
G1 X305.487 Y-220.189
G1 X302.411 Y-225.735
G1 X299.212 Y-231.239
G1 X295.972 Y-236.57
G1 X292.674 Y-241.774
G1 X289.365 Y-246.794
G1 X285.957 Y-251.773
G1 X282.508 Y-256.638
G1 X278.978 Y-261.448
G1 X275.513 Y-266.02
G1 X271.984 Y-270.536
G1 X268.449 Y-274.931
G1 X264.869 Y-279.257
G1 X261.332 Y-283.412
G1 X257.796 Y-287.45
G1 X254.265 Y-291.373
G1 X250.784 Y-295.133
G1 X247.265 Y-298.832
G1 X243.753 Y-302.422
G1 X240.251 Y-305.904
G1 X236.712 Y-309.326
G1 X233.234 Y-312.597
G1 X229.771 Y-315.765
G1 X226.325 Y-318.833
G1 X222.896 Y-321.801
G1 X219.487 Y-324.672
G1 X216.1 Y-327.448
G1 X212.735 Y-330.131
G1 X209.395 Y-332.721
G1 X206.081 Y-335.222
G1 X202.796 Y-337.634
G1 X199.54 Y-339.96
G1 X196.289 Y-342.218
G1 X189.965 Y-346.436
G1 X186.818 Y-348.45
G1 X180.717 Y-352.2
G1 X177.689 Y-353.986
G1 X171.839 Y-357.3
G1 X168.946 Y-358.873
G1 X163.377 Y-361.784
G1 X160.634 Y-363.161
G1 X155.355 Y-365.711
G1 X150.384 Y-367.994
G1 X145.487 Y-370.135
G1 X140.995 Y-372.01
G1 X136.622 Y-373.758
G1 X130.723 Y-376.009
G1 X125.432 Y-377.946
G1 X123.818 Y-378.495
G1 X121.837 Y-379.085
G1 X120.035 Y-379.54
G1 X118.433 Y-379.879
G1 X116.428 Y-380.217
G1 X114.841 Y-380.416
G1 X113.048 Y-380.565
G1 X111.261 Y-380.634
G1 X109.479 Y-380.621
G1 X107.475 Y-380.508
G1 X105.711 Y-380.319
G1 X104.195 Y-380.087
G1 X102.226 Y-379.689
G1 X100.511 Y-379.247
G1 X99.046 Y-378.798
G1 X97.145 Y-378.112
G1 X95.499 Y-377.418
G1 X94.095 Y-376.749
G1 X92.293 Y-375.781
G1 X90.737 Y-374.838
G1 X89.405 Y-373.947
G1 X87.729 Y-372.71
G1 X86.28 Y-371.525
G1 X85.029 Y-370.411
G1 X83.497 Y-368.92
G1 X82.306 Y-367.655
G1 X81.291 Y-366.488
G1 X79.633 Y-364.432
G1 X78.43 Y-362.784
G1 X77.59 Y-361.538
G1 X76.16 Y-359.263
G1 X75.092 Y-357.39
G1 X74.071 Y-355.443
G1 X73.098 Y-353.421
G1 X72.233 Y-351.47
G1 X71.293 Y-349.155
G1 X70.464 Y-346.911
G1 X69.685 Y-344.592
G1 X68.956 Y-342.198
G1 X68.278 Y-339.729
G1 X67.652 Y-337.186
G1 X67.103 Y-334.687
G1 X66.579 Y-331.989
G1 X66.109 Y-329.216
G1 X65.68 Y-326.256
G1 X65.325 Y-323.333
G1 X65.036 Y-320.437
G1 X64.786 Y-317.257
G1 X64.603 Y-314.103
G1 X64.483 Y-310.965
G1 X64.464 Y-307.249
G1 X64.594 Y-303.37
G1 X64.862 Y-299.173
G1 X65.261 Y-294.667
G1 X65.785 Y-289.864
G1 X66.418 Y-284.846
G1 X67.182 Y-279.429
G1 X68.049 Y-273.798
G1 X69.016 Y-267.939
G1 X70.081 Y-261.853
G1 X71.23 Y-255.592
G1 X73.803 Y-242.388
G1 X75.205 Y-235.538
G1 X78.198 Y-221.478
G1 X79.801 Y-214.2
G1 X83.145 Y-199.447
G1 X86.66 Y-184.423
G1 X90.308 Y-169.247
G1 X97.813 Y-139.01
G1 X107.15 Y-102.73
G1 X139.163 Y17.047
G1 X141.354 Y25.582
G1 X143.943 Y36.218
G1 X145.36 Y42.458
G1 X146.23 Y46.518
G1 X147.412 Y52.464
G1 X148.098 Y56.267
G1 X148.698 Y59.941
G1 X149.199 Y63.445
G1 X149.761 Y68.423
G1 X149.99 Y71.45
G1 X150.102 Y74.292
