; generated by PrusaSlicer 2.5.0+linux-x64-GTK3 on 2025-07-03 at 15:27:19 UTC

; 

; external perimeters extrusion width = 2.25mm
; perimeters extrusion width = 2.25mm
; infill extrusion width = 2.25mm
; solid infill extrusion width = 2.25mm
; top infill extrusion width = 2.00mm
; first layer extrusion width = 2.10mm

M107
;TYPE:Custom
G28 ; home all axes
G1 Z5 F5000 ; lift nozzle
G21 ; set units to millimeters
G90 ; use absolute coordinates
M82 ; use absolute distances for extrusion
G92 E0
; Filament gcode
M107
;LAYER_CHANGE
;Z:0.6
;HEIGHT:0.6
G1 Z.6 F7800
G1 E-2 F2400
G92 E0
G1 X-224.892 Y211.627 F7800
G1 E2 F2400
;TYPE:Skirt/Brim
;WIDTH:2.1
G1 F18000
G1 X-230.622 Y205.539 E3.23329
G1 X-245.359 Y189.599 E6.43573
G1 X-259.374 Y174.109 E9.51723
G1 X-281.482 Y148.407 E14.51842
G1 X-285.126 Y144.036 E15.35799
G1 X-291.626 Y136.002 E16.88249
G1 X-299.022 Y126.658 E18.64038
G1 X-306.68 Y116.816 E20.47999
G1 X-313.926 Y107.341 E22.23966
G1 X-321.955 Y96.55 E24.22374
G1 X-337.051 Y75.681 E28.0233
G1 X-346.315 Y61.121 E30.56914
G1 X-349.777 Y55.542 E31.53763
G1 X-353.597 Y49.122 E32.63982
G1 X-357.579 Y42.19 E33.81909
G1 X-363.722 Y31.064 E35.69384
G1 X-367.841 Y23.305 E36.98978
G1 X-374.022 Y11.192 E38.9959
G1 X-378.801 Y1.556 E40.58247
G1 X-381.229 Y-3.728 E41.44032
G1 X-387.462 Y-20.312 E44.05395
G1 X-391.975 Y-33.467 E46.10553
G1 X-396.087 Y-46.367 E48.10282
G1 X-398.262 Y-54.046 E49.28025
G1 X-400.988 Y-66.185 E51.11557
G1 X-403.499 Y-79.215 E53.07304
G1 X-404.007 Y-82.445 E53.55542
G1 X-404.85 Y-90.034 E54.68185
G1 X-405.231 Y-94.698 E55.37209
G1 X-405.834 Y-104.55 E56.82817
G1 X-406.444 Y-121.167 E59.28116
G1 X-406.668 Y-138.518 E61.84101
G1 X-406.483 Y-154.865 E64.25253
G1 X-406.116 Y-164.615 E65.69195
G1 X-405.84 Y-169.181 E66.36665
G1 X-403.794 Y-191.028 E69.60359
G1 X-400.809 Y-206.365 E71.90853
G1 X-396.128 Y-227.582 E75.11381
G1 X-395.019 Y-232.204 E75.81487
G1 X-393.694 Y-237.037 E76.5542
G1 X-390.982 Y-245.693 E77.89228
G1 X-388.75 Y-251.915 E78.86752
G1 X-385.708 Y-259.737 E80.10558
G1 X-380.988 Y-271.203 E81.93468
G1 X-377.327 Y-279.642 E83.29168
G1 X-373.932 Y-287.026 E84.49061
G1 X-372.012 Y-290.887 E85.12662
G1 X-370.735 Y-293.263 E85.52463
G1 X-366.339 Y-300.974 E86.83404
G1 X-361.164 Y-309.54 E88.31028
G1 X-353.794 Y-321.136 E90.33722
G1 X-348.251 Y-329.427 E91.80835
G1 X-343.243 Y-336.509 E93.08798
G1 X-340.258 Y-340.44 E93.81611
G1 X-335.025 Y-346.76 E95.02659
G1 X-328.899 Y-353.773 E96.40021
G1 X-322.509 Y-360.733 E97.79403
G1 X-313.993 Y-369.516 E99.59869
G1 X-307.72 Y-375.612 E100.88915
G1 X-302.002 Y-380.829 E102.03089
G1 X-288.151 Y-392.563 E104.70886
G1 X-285.317 Y-394.81 E105.24231
G1 X-277.687 Y-400.39 E106.63687
G1 X-268.795 Y-406.557 E108.23322
G1 X-262.393 Y-410.823 E109.36804
G1 X-258.572 Y-413.268 E110.03722
G1 X-248.288 Y-419.419 E111.80501
G1 X-243.976 Y-421.867 E112.53641
G1 X-238.34 Y-424.806 E113.47409
G1 X-231.862 Y-428.001 E114.53961
G1 X-221.67 Y-432.766 E116.1993
G1 X-214.848 Y-435.788 E117.30003
G1 X-208.6 Y-438.402 E118.29911
G1 X-203.404 Y-440.391 E119.1199
G1 X-192.603 Y-443.851 E120.79292
G1 X-187.213 Y-445.389 E121.61977
G1 X-179.345 Y-447.42 E122.81856
G1 X-173.059 Y-448.892 E123.77099
G1 X-167.898 Y-449.929 E124.54749
G1 X-160.472 Y-451.044 E125.65519
G1 X-153.992 Y-451.762 E126.61698
G1 X-147.268 Y-452.228 E127.61128
G1 X32.328 Y-462.475 E154.148
G1 X39.676 Y-462.753 E155.23279
G1 X47.061 Y-462.8 E156.32219
G1 X56.226 Y-462.675 E157.67442
G1 X64.317 Y-462.364 E158.86879
G1 X71.722 Y-461.824 E159.96417
G1 X78.604 Y-461.036 E160.98593
G1 X83.361 Y-460.314 E161.69573
G1 X90.388 Y-459.001 E162.75034
G1 X103.886 Y-456.035 E164.78897
G1 X109.488 Y-454.609 E165.64171
G1 X129.992 Y-448.309 E168.80611
G1 X138.424 Y-445.381 E170.12272
G1 X148.113 Y-441.684 E171.65251
G1 X158.577 Y-437.424 E173.31917
G1 X174.525 Y-430.509 E175.88355
G1 X185.027 Y-425.686 E177.58829
G1 X194.784 Y-420.975 E179.18656
G1 X203.343 Y-416.582 E180.60578
G1 X207.164 Y-414.5 E181.24772
G1 X210.592 Y-412.529 E181.83103
G1 X213.85 Y-410.513 E182.39623
G1 X233.739 Y-397.368 E185.91319
G1 X244.663 Y-389.97 E187.85935
G1 X254.232 Y-383.139 E189.59372
G1 X260.096 Y-378.699 E190.67876
G1 X265.719 Y-374.207 E191.7405
G1 X271.244 Y-369.547 E192.80679
G1 X276.814 Y-364.603 E193.90535
G1 X282.577 Y-359.26 E195.06471
G1 X288.733 Y-353.351 E196.32343
G1 X297.564 Y-344.62 E198.15538
G1 X305.213 Y-336.817 E199.76732
G1 X311.021 Y-330.628 E201.01936
G1 X314.32 Y-326.861 E201.75804
G1 X326.719 Y-312.106 E204.6011
G1 X346.519 Y-288.16 E209.18485
G1 X350.226 Y-283.198 E210.09853
G1 X353.112 Y-278.992 E210.85102
G1 X356.346 Y-274.077 E211.71894
G1 X361.485 Y-265.936 E213.1391
G1 X366.469 Y-257.657 E214.56464
G1 X370.971 Y-249.737 E215.90848
G1 X373.511 Y-244.929 E216.71075
G1 X376.929 Y-237.98 E217.85315
G1 X380.417 Y-230.294 E219.09819
G1 X384.601 Y-220.292 E220.6976
G1 X387.206 Y-213.454 E221.77701
G1 X392.459 Y-198.041 E224.17914
G1 X393.507 Y-194.445 E224.73169
G1 X394.525 Y-190.302 E225.36106
G1 X397.452 Y-176.63 E227.42359
G1 X398.881 Y-169.067 E228.55905
G1 X400.752 Y-157.729 E230.25425
G1 X402.432 Y-146.074 E231.99138
G1 X405.434 Y-121.601 E235.62854
G1 X405.693 Y-118.831 E236.039
G1 X406.062 Y-112.794 E236.9312
G1 X406.35 Y-105.225 E238.04867
G1 X406.608 Y-92.522 E239.92299
G1 X406.663 Y-79.395 E241.85938
G1 X406.504 Y-67.42 E243.62609
G1 X406.115 Y-58.254 E244.97943
G1 X405.663 Y-53.986 E245.61259
G1 X401.728 Y-31.525 E248.97654
G1 X401.094 Y-28.536 E249.42721
G1 X395.117 Y-8.615 E252.49538
G1 X390.512 Y4.642 E254.56556
G1 X389.227 Y8.035 E255.1009
G1 X383.243 Y22.766 E257.44635
G1 X380.863 Y27.993 E258.29355
G1 X377.87 Y34.277 E259.32049
G1 X370.967 Y48.174 E261.60944
G1 X365.771 Y58.22 E263.27798
G1 X354.999 Y78.517 E266.66764
G1 X332.559 Y112.032 E272.61766
G1 X325.459 Y122.276 E274.45622
G1 X317.28 Y133.741 E276.53378
G1 X305.835 Y149.301 E279.38324
G1 X296.824 Y161.053 E281.56789
G1 X278.593 Y183.491 E285.83269
G1 X256.482 Y210.386 E290.96897
G1 X238.766 Y230.799 E294.95618
G1 X205.596 Y268.139 E302.32394
G1 X161.825 Y316.329 E311.92757
G1 X31.068 Y459.569 E340.53809
G1 X28.897 Y461.357 E340.95309
G1 X26.311 Y462.466 E341.36808
G1 X23.519 Y462.806 E341.78308
G1 X20.743 Y462.35 E342.19807
G1 X18.206 Y461.135 E342.61307
G1 X16.765 Y459.965 E342.88683
G1 X-11.705 Y432.022 E348.77163
G1 X-32.375 Y411.322 E353.08689
G1 X-47.325 Y396.1 E356.23437
G1 X-72.625 Y370.11 E361.58492
G1 X-170.992 Y268.449 E382.45298
G1 X-200.739 Y237.294 E388.80736
G1 X-224.687 Y211.846 E393.96232
G1 X-223.24 Y210.488 F7800
G1 F18000
G1 X-233.423 Y199.637 E396.15751
G1 X-243.905 Y188.268 E398.43866
G1 X-258.039 Y172.643 E401.54685
G1 X-279.987 Y147.122 E406.51228
G1 X-285.609 Y140.329 E407.81308
G1 X-297.486 Y125.422 E410.6248
G1 X-305.117 Y115.613 E412.45808
G1 X-312.357 Y106.148 E414.216
G1 X-320.363 Y95.387 E416.19463
G1 X-335.422 Y74.572 E419.98455
G1 X-344.651 Y60.064 E422.52104
G1 X-348.096 Y54.512 E423.48499
G1 X-351.892 Y48.133 E424.5799
G1 X-355.86 Y41.226 E425.75512
G1 X-361.99 Y30.123 E427.62602
G1 X-366.096 Y22.387 E428.91804
G1 X-372.262 Y10.304 E430.91908
G1 X-377.025 Y.699 E432.50067
G1 X-379.386 Y-4.427 E433.33326
G1 X-385.607 Y-20.982 E435.94207
G1 X-390.102 Y-34.083 E437.98531
G1 X-394.198 Y-46.932 E439.97482
G1 X-396.354 Y-54.541 E441.14137
G1 X-399.056 Y-66.575 E442.96081
G1 X-401.552 Y-79.525 E444.90635
G1 X-402.051 Y-82.688 E445.3787
G1 X-402.889 Y-90.23 E446.49814
G1 X-403.264 Y-94.83 E447.17902
G1 X-403.866 Y-104.659 E448.6317
G1 X-404.473 Y-121.223 E451.0768
G1 X-404.697 Y-138.513 E453.62762
G1 X-404.51 Y-154.91 E456.04663
G1 X-404.147 Y-164.528 E457.46646
G1 X-403.875 Y-169.022 E458.13058
G1 X-401.843 Y-190.745 E461.34922
G1 X-398.882 Y-205.95 E463.63429
G1 X-394.205 Y-227.149 E466.83668
G1 X-393.111 Y-231.709 E467.52854
G1 X-391.792 Y-236.518 E468.2641
G1 X-389.117 Y-245.053 E469.58365
G1 X-386.902 Y-251.23 E470.55159
G1 X-383.876 Y-259.011 E471.78329
G1 X-379.171 Y-270.438 E473.60629
G1 X-375.529 Y-278.834 E474.9563
G1 X-372.16 Y-286.163 E476.14619
G1 X-370.255 Y-289.993 E476.77724
G1 X-369 Y-292.328 E477.16832
G1 X-364.636 Y-299.981 E478.46793
G1 X-359.49 Y-308.498 E479.93579
G1 X-352.14 Y-320.063 E481.95726
G1 X-346.63 Y-328.305 E483.41973
G1 X-341.647 Y-335.352 E484.69306
G1 X-338.7 Y-339.231 E485.41168
G1 X-333.529 Y-345.477 E486.60782
G1 X-327.436 Y-352.451 E487.97398
G1 X-321.078 Y-359.378 E489.36097
G1 X-312.595 Y-368.127 E491.15868
G1 X-306.375 Y-374.172 E492.43823
G1 X-300.692 Y-379.356 E493.5729
G1 X-286.879 Y-391.057 E496.24344
G1 X-284.109 Y-393.252 E496.76473
G1 X-276.541 Y-398.786 E498.14785
G1 X-267.649 Y-404.952 E499.74411
G1 X-261.31 Y-409.176 E500.86777
G1 X-257.539 Y-411.59 E501.52834
G1 X-247.291 Y-417.718 E503.28979
G1 X-243.023 Y-420.142 E504.01383
G1 X-237.44 Y-423.051 E504.9425
G1 X-231.013 Y-426.222 E505.99975
G1 X-220.849 Y-430.974 E507.65485
G1 X-214.076 Y-433.974 E508.7477
G1 X-207.878 Y-436.568 E509.73884
G1 X-202.719 Y-438.542 E510.55367
G1 X-192.039 Y-441.962 E512.20804
G1 X-186.701 Y-443.485 E513.0268
G1 X-178.87 Y-445.507 E514.21996
G1 X-172.641 Y-446.966 E515.16365
G1 X-167.548 Y-447.989 E515.93
G1 X-160.255 Y-449.085 E517.01794
G1 X-153.775 Y-449.803 E517.97973
G1 X-147.156 Y-450.26 E518.95852
G1 X32.44 Y-460.507 E545.49524
G1 X39.733 Y-460.783 E546.57188
G1 X47.056 Y-460.829 E547.6522
G1 X56.169 Y-460.705 E548.99671
G1 X64.199 Y-460.397 E550.18204
G1 X71.526 Y-459.863 E551.26586
G1 X78.35 Y-459.081 E552.27914
G1 X83.024 Y-458.372 E552.9765
G1 X89.982 Y-457.072 E554.02063
G1 X103.441 Y-454.114 E556.05352
G1 X108.948 Y-452.713 E556.89169
G1 X129.364 Y-446.44 E560.04243
G1 X137.76 Y-443.524 E561.3536
G1 X147.398 Y-439.847 E562.87536
G1 X157.808 Y-435.609 E564.53338
G1 X173.726 Y-428.707 E567.09279
G1 X184.179 Y-423.906 E568.78969
G1 X193.896 Y-419.215 E570.38137
G1 X202.43 Y-414.835 E571.79641
G1 X206.22 Y-412.769 E572.43317
G1 X209.608 Y-410.821 E573.00976
G1 X212.763 Y-408.868 E573.55709
G1 X232.644 Y-395.729 E577.07254
G1 X243.546 Y-388.346 E579.01492
G1 X253.07 Y-381.547 E580.74106
G1 X258.896 Y-377.135 E581.81911
G1 X264.478 Y-372.676 E582.87317
G1 X269.963 Y-368.049 E583.93172
G1 X275.496 Y-363.137 E585.02317
G1 X281.229 Y-357.821 E586.17654
G1 X287.354 Y-351.942 E587.42883
G1 X296.164 Y-343.232 E589.25639
G1 X303.789 Y-335.454 E590.86326
G1 X309.568 Y-329.297 E592.10887
G1 X312.818 Y-325.585 E592.83669
G1 X325.209 Y-310.839 E595.67811
G1 X344.974 Y-286.936 E600.25345
G1 X348.607 Y-282.072 E601.14908
G1 X351.48 Y-277.885 E601.8982
G1 X354.695 Y-273 E602.76088
G1 X359.803 Y-264.907 E604.1727
G1 X364.773 Y-256.653 E605.59396
G1 X369.247 Y-248.782 E606.92959
G1 X371.753 Y-244.036 E607.72133
G1 X375.15 Y-237.13 E608.85659
G1 X378.608 Y-229.511 E610.09092
G1 X382.773 Y-219.555 E611.68296
G1 X385.356 Y-212.774 E612.75338
G1 X390.577 Y-197.453 E615.14109
G1 X391.615 Y-193.89 E615.68858
G1 X392.603 Y-189.865 E616.29992
G1 X395.519 Y-176.243 E618.35506
G1 X396.94 Y-168.719 E619.48461
G1 X398.803 Y-157.431 E621.17221
G1 X400.477 Y-145.819 E622.90295
G1 X403.478 Y-121.363 E626.53766
G1 X403.726 Y-118.695 E626.93305
G1 X404.093 Y-112.688 E627.82076
G1 X404.379 Y-105.172 E628.93031
G1 X404.637 Y-92.503 E630.79964
G1 X404.692 Y-79.409 E632.73132
G1 X404.533 Y-67.479 E634.49134
G1 X404.148 Y-58.371 E635.83616
G1 X403.71 Y-54.254 E636.4469
G1 X399.786 Y-31.866 E639.79985
G1 X399.188 Y-29.038 E640.22634
G1 X393.238 Y-9.209 E643.28021
G1 X388.651 Y3.994 E645.34219
G1 X387.392 Y7.315 E645.86602
G1 X381.444 Y21.96 E648.19782
G1 X379.074 Y27.166 E649.0417
G1 X376.093 Y33.423 E650.06417
G1 X369.208 Y47.285 E652.3473
G1 X364.024 Y57.305 E654.01157
G1 X353.294 Y77.528 E657.38879
G1 X330.932 Y110.918 E663.31701
G1 X323.849 Y121.138 E665.15121
G1 X315.661 Y132.616 E667.23113
G1 X304.256 Y148.122 E670.07078
G1 X295.277 Y159.832 E672.24756
G1 X277.07 Y182.239 E676.50659
G1 X254.965 Y209.127 E681.64142
G1 X237.286 Y229.497 E685.62026
G1 X204.126 Y266.825 E692.98575
G1 X160.366 Y315.005 E702.58724
G1 X29.613 Y458.24 E731.1969
G1 X27.643 Y459.807 E731.56825
G1 X25.283 Y460.683 E731.9396
G1 X22.767 Y460.779 E732.31096
G1 X20.347 Y460.085 E732.68231
G1 X18.145 Y458.557 E733.07775
G1 X-14.231 Y426.741 E739.77396
G1 X-26.545 Y414.41 E742.34474
G1 X-40.617 Y400.133 E745.30192
G1 X-86.95 Y352.501 E755.10446
G1 X-174.061 Y262.418 E773.59039
G1 X-204.565 Y230.386 E780.11555
G1 X-223.034 Y210.706 E784.0969
G1 E782.0969 F2400
G92 E0
G1 X17.061 Y360.859 F7800
G1 E2 F2400
;TYPE:Perimeter
;WIDTH:2.1
G1 F18000
G1 X17.305 Y361.078 E2.04831
G1 X17.795 Y361.424 E2.13682
G1 X18.316 Y361.704 E2.22408
G1 X18.855 Y361.916 E2.30952
G1 X19.399 Y362.061 E2.39262
G1 X19.938 Y362.14 E2.47295
G1 X20.49 Y362.16 E2.55447
G1 X21.007 Y362.122 E2.63085
G1 X21.527 Y362.027 E2.70888
G1 X22.052 Y361.871 E2.78959
G1 X22.57 Y361.651 E2.87261
G1 X23.07 Y361.367 E2.95747
G1 X23.54 Y361.02 E3.04365
G1 X23.97 Y360.617 E3.13055
G1 X122.148 Y256.711 E24.2187
G1 X173.23 Y201.931 E35.26803
G1 X176.702 Y198.137 E36.02663
G1 X180.732 Y193.646 E36.91689
G1 X194.581 Y177.908 E40.00933
G1 X197.292 Y174.878 E40.60912
G1 X200.592 Y171.141 E41.34455
G1 X221.645 Y146.943 E46.07614
G1 X224.709 Y143.337 E46.77418
G1 X227.352 Y140.116 E47.38884
G1 X247.776 Y114.425 E52.23041
G1 X252.838 Y107.964 E53.44113
G1 X257.194 Y102.29 E54.49647
G1 X260.657 Y97.651 E55.35044
G1 X262.443 Y95.141 E55.80493
G1 X263.082 Y94.164 E55.97703
G1 X263.594 Y93.306 E56.12451
G1 X263.937 Y92.772 E56.21805
G1 X264.538 Y91.942 E56.36926
G1 X264.891 Y91.525 E56.44987
G1 X265.196 Y91.389 E56.49913
G1 X265.749 Y91.075 E56.59295
G1 X266.186 Y90.795 E56.66961
G1 X266.586 Y90.476 E56.74502
G1 X266.948 Y90.121 E56.81972
G1 X267.349 Y89.662 E56.9097
G1 X267.675 Y89.226 E56.99001
G1 X267.951 Y88.758 E57.0702
G1 X268.418 Y87.807 E57.22653
G1 X268.584 Y87.325 E57.30164
G1 X268.742 Y86.77 E57.38689
G1 X268.91 Y85.87 E57.52192
G1 X268.964 Y85.307 E57.60534
G1 X269.63 Y84.616 E57.74693
G1 X270.365 Y83.729 E57.91688
G1 X271.209 Y82.627 E58.12155
G1 X272.214 Y81.255 E58.37255
G1 X273.934 Y78.819 E58.81245
G1 X277.233 Y73.981 E59.67627
G1 X279.44 Y70.662 E60.26422
G1 X284.146 Y63.412 E61.53931
G1 X288.136 Y57.073 E62.64426
G1 X292.869 Y49.321 E63.98414
G1 X296.919 Y42.424 E65.16389
G1 X300.762 Y35.621 E66.31665
G1 X304.402 Y28.905 E67.44354
G1 X307.84 Y22.271 E68.5457
G1 X311.034 Y15.806 E69.60952
G1 X314.073 Y9.327 E70.66513
G1 X316.916 Y2.917 E71.6996
G1 X319.564 Y-3.431 E72.71421
G1 X322.061 Y-9.831 E73.72766
G1 X324.323 Y-16.072 E74.70701
G1 X326.357 Y-22.144 E75.65166
G1 X328.243 Y-28.29 E76.59993
G1 X329.943 Y-34.395 E77.53484
G1 X331.489 Y-40.598 E78.47791
G1 X332.817 Y-46.642 E79.39079
G1 X333.964 Y-52.66 E80.2945
G1 X334.936 Y-58.691 E81.19565
G1 X335.138 Y-60.343 E81.44116
G1 X335.301 Y-62.279 E81.72772
G1 X335.456 Y-64.838 E82.10595
G1 X335.583 Y-67.648 E82.52086
G1 X335.691 Y-70.782 E82.98351
G1 X335.849 Y-77.821 E84.02211
G1 X335.933 Y-85.67 E85.18015
G1 X335.948 Y-89.757 E85.78295
G1 X335.925 Y-97.954 E86.99228
G1 X335.83 Y-105.994 E88.17835
G1 X335.756 Y-109.832 E88.74461
G1 X335.555 Y-116.902 E89.78802
G1 X335.459 Y-119.257 E90.13571
G1 X335.281 Y-122.828 E90.66314
G1 X335.122 Y-125.163 E91.00842
G1 X334.845 Y-128.439 E91.49344
G1 X334.547 Y-131.624 E91.96534
G1 X334.238 Y-134.635 E92.41181
G1 X333.904 Y-137.589 E92.85038
G1 X333.533 Y-140.59 E93.29636
G1 X333.153 Y-143.394 E93.71389
G1 X332.739 Y-146.207 E94.13327
G1 X332.295 Y-148.98 E94.54762
G1 X331.82 Y-151.723 E94.95821
G1 X331.299 Y-154.507 E95.37605
G1 X330.756 Y-157.213 E95.78317
G1 X330.253 Y-159.562 E96.13754
G1 X329.561 Y-162.615 E96.59934
G1 X328.907 Y-165.328 E97.01102
G1 X328.212 Y-168.06 E97.42683
G1 X327.49 Y-170.767 E97.84013
G1 X326.696 Y-173.616 E98.27643
G1 X325.872 Y-176.457 E98.71289
G1 X325.002 Y-179.353 E99.15895
G1 X324.078 Y-182.334 E99.61925
G1 X322.558 Y-187.027 E100.3471
G1 X320.998 Y-191.524 E101.04925
G1 X319.319 Y-196.042 E101.76017
G1 X317.544 Y-200.497 E102.46768
G1 X315.663 Y-204.907 E103.17483
G1 X313.616 Y-209.395 E103.90264
G1 X311.494 Y-213.757 E104.61814
