; generated by PrusaSlicer 2.9.3 on 2025-09-16 at 12:46:13 UTC

;

; external perimeters extrusion width = 2.25mm
; perimeters extrusion width = 2.25mm
; infill extrusion width = 2.25mm
; solid infill extrusion width = 2.25mm
; top infill extrusion width = 2.00mm
; first layer extrusion width = 2.10mm

;TYPE:Custom
G28 ; home all axes
G1 Z5 F5000 ; lift nozzle
G21 ; set units to millimeters
G90 ; use absolute coordinates
M82 ; use absolute distances for extrusion
G92 E0
; Filament gcode
M107
;LAYER_CHANGE
;Z:0.6
;HEIGHT:0.6
G1 E-2 F2400
G92 E0
G1 Z.6 F7800
G1 X-229.575 Y203
G1 E2 F2400
;TYPE:Skirt/Brim
;WIDTH:2.1
G1 F18000
G1 X-246.398 Y183.974 E5.7465
G1 X-264.685 Y162.737 E9.88076
G1 X-276.723 Y148.397 E12.64274
G1 X-294.24 Y126.905 E16.73289
G1 X-305.575 Y112.52 E19.43457
G1 X-321.687 Y91.243 E23.3717
G1 X-331.883 Y77.131 E25.93999
G1 X-341.449 Y63.29 E28.42199
G1 X-350.363 Y49.701 E30.81942
G1 X-358.556 Y36.411 E33.12254
G1 X-365.965 Y23.451 E35.32474
G1 X-372.551 Y10.732 E37.43764
G1 X-378.584 Y-2.35 E39.5628
G1 X-383.977 Y-15.591 E41.67189
G1 X-388.8 Y-29.157 E43.79583
G1 X-392.879 Y-42.463 E45.84887
G1 X-396.41 Y-56.049 E47.91964
G1 X-399.343 Y-69.707 E49.98038
G1 X-401.715 Y-83.598 E52.05922
G1 X-403.476 Y-97.333 E54.10197
G1 X-404.671 Y-111.075 E56.13682
G1 X-405.312 Y-124.804 E58.1643
G1 X-405.428 Y-131.657 E59.17539
G1 X-405.263 Y-145.153 E61.16645
G1 X-404.974 Y-152.138 E62.19775
G1 X-404.032 Y-165.532 E64.17849
G1 X-403.346 Y-172.449 E65.20388
G1 X-401.65 Y-185.695 E67.17386
G1 X-400.58 Y-192.522 E68.19326
G1 X-398.155 Y-205.573 E70.15147
G1 X-396.711 Y-212.287 E71.16456
G1 X-393.58 Y-225.097 E73.1099
G1 X-391.776 Y-231.676 E74.11625
G1 X-387.962 Y-244.2 E76.04754
G1 X-385.808 Y-250.62 E77.04649
G1 X-381.333 Y-262.811 E78.96222
G1 X-378.841 Y-269.051 E79.95342
G1 X-373.729 Y-280.863 E81.85209
G1 X-370.909 Y-286.899 E82.83489
G1 X-365.183 Y-298.287 E84.71523
G1 X-358.958 Y-309.527 E86.61064
G1 X-355.659 Y-315.024 E87.55637
G1 X-348.613 Y-325.87 E89.46433
G1 X-344.99 Y-331.043 E90.39599
G1 X-337.574 Y-340.915 E92.21743
G1 X-333.548 Y-345.922 E93.16521
G1 X-325.613 Y-355.164 E94.96214
G1 X-321.342 Y-359.833 E95.89561
G1 X-312.967 Y-368.441 E97.66729
G1 X-308.491 Y-372.772 E98.58608
G1 X-299.752 Y-380.741 E100.33076
G1 X-295.111 Y-384.732 E101.23372
G1 X-286.087 Y-392.057 E102.94829
G1 X-281.319 Y-395.71 E103.83436
G1 X-272.085 Y-402.386 E105.51526
G1 X-262.485 Y-408.808 E107.21909
G1 X-253.091 Y-414.613 E108.84812
G1 X-248.172 Y-417.471 E109.68735
G1 X-233.968 Y-425.06 E112.06302
G1 X-219.698 Y-431.72 E114.38609
G1 X-210.122 Y-435.657 E115.91345
G1 X-196.203 Y-440.611 E118.09293
G1 X-182.826 Y-444.484 E120.14733
G1 X-178.21 Y-445.607 E120.84814
G1 X-169.734 Y-447.368 E122.12521
G1 X-161.073 Y-448.733 E123.41864
G1 X-152.9 Y-449.578 E124.63073
G1 X32.926 Y-461.097 E152.09607
G1 X39.677 Y-461.293 E153.09239
G1 X46.791 Y-461.161 E154.14202
G1 X54.073 Y-460.707 E155.21833
G1 X61.509 Y-459.949 E156.32096
G1 X69.084 Y-458.902 E157.44903
G1 X76.784 Y-457.583 E158.60147
G1 X84.593 Y-456.004 E159.77675
G1 X92.495 Y-454.18 E160.97309
G1 X100.676 Y-452.068 E162.2195
G1 X108.698 Y-449.791 E163.44964
G1 X124.855 Y-444.632 E165.95165
G1 X132.953 Y-441.773 E167.21852
G1 X148.953 Y-435.619 E169.74738
G1 X165.054 Y-428.766 E172.32876
G1 X180.535 Y-421.551 E174.84833
G1 X188.301 Y-417.694 E176.12747
G1 X203.127 Y-409.862 E178.60099
G1 X210.281 Y-405.847 E179.81118
G1 X223.838 Y-397.761 E182.1398
G1 X236.592 Y-389.483 E184.3828
G1 X248.389 Y-381.083 E186.51916
G1 X259.153 Y-372.839 E188.51926
G1 X269.581 Y-364.477 E190.49108
G1 X284.837 Y-351.462 E193.44931
G1 X299.537 Y-337.856 E196.40415
G1 X308.79 Y-328.64 E198.33068
G1 X313.442 Y-323.785 E199.32259
G1 X322.193 Y-314.194 E201.23787
G1 X326.487 Y-309.243 E202.20466
G1 X334.903 Y-298.998 E204.16054
G1 X342.739 Y-288.716 E206.06759
G1 X346.562 Y-283.395 E207.03413
G1 X354 Y-272.365 E208.99665
G1 X360.824 Y-261.312 E210.91289
G1 X364.122 Y-255.583 E211.88805
G1 X370.47 Y-243.694 E213.87624
G1 X376.184 Y-231.793 E215.82372
G1 X378.906 Y-225.619 E216.81909
G1 X383.985 Y-212.993 E218.82671
G1 X386.403 Y-206.351 E219.86943
G1 X390.657 Y-193.334 E221.88962
G1 X394.452 Y-179.734 E223.97251
G1 X397.747 Y-165.537 E226.12249
G1 X400.439 Y-151.114 E228.28689
G1 X402.54 Y-136.45 E230.47219
G1 X403.389 Y-128.86 E231.59884
G1 X404.642 Y-113.347 E233.89474
G1 X405.295 Y-97.206 E236.27778
G1 X405.385 Y-88.942 E237.49694
G1 X405.225 Y-80.87 E238.68794
G1 X404.68 Y-72.023 E239.99551
G1 X403.811 Y-63.533 E241.25448
G1 X402.669 Y-55.343 E242.47434
G1 X401.123 Y-46.527 E243.79471
G1 X399.334 Y-38.027 E245.07609
G1 X397.335 Y-29.794 E246.3259
G1 X394.943 Y-21.069 E247.66049
G1 X392.372 Y-12.626 E248.96245
G1 X389.641 Y-4.423 E250.23784
G1 X386.549 Y4.154 E251.58281
G1 X379.916 Y20.743 E254.21836
G1 X376.332 Y28.947 E255.53905
G1 X368.698 Y45.137 E258.17956
G1 X360.605 Y60.862 E260.78847
G1 X351.964 Y76.432 E263.41534
G1 X343.146 Y91.317 E265.96754
G1 X334.017 Y105.869 E268.50168
G1 X324.867 Y119.733 E270.95214
G1 X311.279 Y139.214 E274.45595
G1 X302.407 Y151.327 E276.67087
G1 X293.842 Y162.623 E278.76209
G1 X278.076 Y182.504 E282.50516
G1 X262.074 Y201.594 E286.17979
G1 X243.754 Y222.422 E290.27173
G1 X174.186 Y298.213 E305.44818
G1 X26.343 Y458.391 E337.60396
G1 X24.26 Y460.059 E337.99762
G1 X21.777 Y461.039 E338.39141
G1 X19.115 Y461.245 E338.78528
G1 X16.512 Y460.656 E339.17898
G1 X13.306 Y458.516 E339.74761
G1 X-163.294 Y274.632 E377.35779
G1 X-185.91 Y250.717 E382.21338
G1 X-209.712 Y224.995 E387.38317
G1 X-228.01 Y204.769 E391.40668
G1 X-229.376 Y203.225 E391.71079
G1 X-227.896 Y201.895 F7800
G1 F18000
G1 X-232.671 Y196.579 E392.76491
G1 X-251.032 Y175.639 E396.87326
G1 X-269.206 Y154.325 E401.0053
G1 X-281.116 Y139.976 E403.7562
G1 X-298.39 Y118.507 E407.82115
G1 X-309.504 Y104.187 E410.49519
G1 X-325.234 Y83.04 E414.38315
G1 X-335.071 Y69.134 E416.89592
G1 X-344.336 Y55.39 E419.34107
G1 X-352.868 Y41.994 E421.684
G1 X-360.641 Y28.929 E423.92664
G1 X-367.624 Y16.137 E426.07655
G1 X-373.868 Y3.367 E428.17349
G1 X-379.543 Y-9.716 E430.27722
G1 X-384.586 Y-22.946 E432.36587
G1 X-389.007 Y-36.302 E434.44126
G1 X-392.818 Y-49.762 E436.50491
G1 X-396.028 Y-63.304 E438.55796
G1 X-398.649 Y-76.908 E440.60171
G1 X-400.691 Y-90.552 E442.63687
G1 X-402.166 Y-104.215 E444.66412
G1 X-403.084 Y-117.876 E446.68391
G1 X-403.455 Y-131.515 E448.69666
G1 X-403.292 Y-145.109 E450.70217
G1 X-403.006 Y-152.018 E451.72225
G1 X-402.067 Y-165.375 E453.69751
G1 X-401.388 Y-172.218 E454.71193
G1 X-399.698 Y-185.426 E456.67624
G1 X-398.638 Y-192.18 E457.68477
G1 X-396.22 Y-205.195 E459.63757
G1 X-394.792 Y-211.837 E460.63978
G1 X-391.67 Y-224.612 E462.57979
G1 X-389.885 Y-231.119 E463.57515
G1 X-386.081 Y-243.608 E465.50107
G1 X-383.951 Y-249.958 E466.48911
G1 X-379.489 Y-262.114 E468.39933
G1 X-377.025 Y-268.285 E469.37955
G1 X-371.928 Y-280.063 E471.27274
G1 X-369.14 Y-286.031 E472.24446
G1 X-363.431 Y-297.384 E474.11906
G1 X-357.16 Y-308.697 E476.02718
G1 X-350.582 Y-319.361 E477.87553
G1 X-346.998 Y-324.74 E478.82904
G1 X-343.401 Y-329.877 E479.75415
G1 X-336.011 Y-339.714 E481.56916
G1 X-332.039 Y-344.654 E482.50425
G1 X-324.131 Y-353.865 E484.29512
G1 X-319.915 Y-358.473 E485.21647
G1 X-311.568 Y-367.052 E486.98221
G1 X-307.148 Y-371.328 E487.88942
G1 X-298.438 Y-379.271 E489.62836
G1 X-293.854 Y-383.213 E490.52023
G1 X-284.859 Y-390.515 E492.22934
G1 X-280.149 Y-394.123 E493.10458
G1 X-270.945 Y-400.778 E494.78008
G1 X-261.434 Y-407.141 E496.46816
G1 X-252.07 Y-412.926 E498.09187
G1 X-247.212 Y-415.749 E498.92073
G1 X-233.07 Y-423.305 E501.28604
G1 X-218.898 Y-429.918 E503.59307
G1 X-209.424 Y-433.813 E505.10416
G1 X-195.616 Y-438.729 E507.26634
G1 X-182.318 Y-442.579 E509.3086
G1 X-177.787 Y-443.682 E509.99653
G1 X-169.356 Y-445.433 E511.2668
G1 X-161.024 Y-446.751 E512.51121
G1 X-152.778 Y-447.61 E513.73423
G1 X33.048 Y-459.13 E541.19958
G1 X39.733 Y-459.322 E542.18615
G1 X46.751 Y-459.19 E543.22162
G1 X53.948 Y-458.739 E544.28539
G1 X61.307 Y-457.988 E545.37662
G1 X68.813 Y-456.95 E546.49443
G1 X76.45 Y-455.64 E547.63748
G1 X84.202 Y-454.072 E548.8042
G1 X92.05 Y-452.259 E549.99241
G1 X108.119 Y-447.907 E552.44828
G1 X124.199 Y-442.773 E554.93834
G1 X132.262 Y-439.927 E556.1997
G1 X148.228 Y-433.786 E558.72319
G1 X164.236 Y-426.972 E561.2897
G1 X179.688 Y-419.771 E563.80452
G1 X187.396 Y-415.943 E565.07409
G1 X202.162 Y-408.143 E567.53758
G1 X209.287 Y-404.145 E568.74281
G1 X222.812 Y-396.077 E571.06602
G1 X235.502 Y-387.841 E573.29773
G1 X247.199 Y-379.511 E575.41609
G1 X257.928 Y-371.294 E577.40966
G1 X268.339 Y-362.946 E579.37823
G1 X283.538 Y-349.979 E582.32547
G1 X298.156 Y-336.449 E585.26381
G1 X307.389 Y-327.254 E587.18606
G1 X311.997 Y-322.445 E588.16858
G1 X320.725 Y-312.877 E590.07907
G1 X324.997 Y-307.952 E591.04083
G1 X333.347 Y-297.789 E592.98118
G1 X341.16 Y-287.536 E594.88278
G1 X344.96 Y-282.246 E595.84362
G1 X352.333 Y-271.313 E597.78891
G1 X359.136 Y-260.293 E599.69938
G1 X362.414 Y-254.6 E600.66847
G1 X368.703 Y-242.822 E602.63812
G1 X374.398 Y-230.959 E604.57934
G1 X377.103 Y-224.825 E605.5683
G1 X382.148 Y-212.278 E607.56323
G1 X384.536 Y-205.718 E608.59307
G1 X388.777 Y-192.743 E610.60677
G1 X392.548 Y-179.226 E612.67692
G1 X395.814 Y-165.154 E614.80797
G1 X398.491 Y-150.814 E616.95993
G1 X400.586 Y-136.191 E619.13912
G1 X401.43 Y-128.642 E620.25967
G1 X402.675 Y-113.209 E622.54372
G1 X403.324 Y-97.184 E624.90964
G1 X403.414 Y-88.981 E626.11981
G1 X403.254 Y-80.909 E627.31081
G1 X402.719 Y-72.223 E628.59458
G1 X401.859 Y-63.805 E629.84285
G1 X400.717 Y-55.615 E631.06271
G1 X399.194 Y-46.932 E632.36317
G1 X397.418 Y-38.492 E633.63549
G1 X395.419 Y-30.259 E634.8853
G1 X393.057 Y-21.643 E636.20321
G1 X390.501 Y-13.248 E637.49775
G1 X387.77 Y-5.046 E638.773
G1 X384.71 Y3.443 E640.10416
G1 X378.109 Y19.954 E642.72727
G1 X374.541 Y28.123 E644.04228
G1 X366.938 Y44.249 E646.6723
G1 X358.859 Y59.946 E649.2766
G1 X350.261 Y75.439 E651.89046
G1 X341.457 Y90.301 E654.43868
G1 X332.366 Y104.792 E656.96221
G1 X323.239 Y118.621 E659.40649
G1 X309.673 Y138.071 E662.90469
G1 X300.822 Y150.155 E665.11433
G1 X292.276 Y161.425 E667.2008
G1 X276.545 Y181.263 E670.93569
G1 X260.577 Y200.311 E674.60235
G1 X242.294 Y221.097 E678.68604
G1 X172.736 Y296.878 E693.86041
G1 X24.896 Y457.053 E726.01557
G1 X23.028 Y458.488 E726.36306
G1 X20.79 Y459.221 E726.71046
G1 X18.435 Y459.169 E727.05795
G1 X16.231 Y458.337 E727.40547
G1 X14.728 Y457.15 E727.688
G1 X-161.88 Y273.258 E765.29985
G1 X-190.312 Y243.113 E771.4127
G1 X-214.322 Y217.008 E776.64482
G1 X-227.695 Y202.118 E779.59721
G1 E777.59721 F2400
G92 E0
G92 E0
G1 X-327.037 Y-331.734 F7800
G1 E2 F2400
;TYPE:Perimeter
;WIDTH:2.1
G1 F18000
G1 X-326.548 Y-332.37 E2.11835
G1 X-322.834 Y-336.989 E2.99269
G1 X-319.037 Y-341.508 E3.8634
G1 X-315.161 Y-345.927 E4.73051
G1 X-311.211 Y-350.245 E5.59381
G1 X-307.19 Y-354.461 E6.45326
G1 X-303.104 Y-358.577 E7.30883
G1 X-298.955 Y-362.59 E8.16034
G1 X-294.749 Y-366.501 E9.00759
G1 X-290.49 Y-370.31 E9.85048
G1 X-286.182 Y-374.015 E10.68869
G1 X-281.829 Y-377.617 E11.52217
G1 X-277.435 Y-381.115 E12.35068
G1 X-273.005 Y-384.508 E13.17384
G1 X-268.543 Y-387.797 E13.99156
G1 X-264.053 Y-390.981 E14.80355
G1 X-259.54 Y-394.059 E15.6094
G1 X-255.008 Y-397.032 E16.40897
G1 X-250.462 Y-399.897 E17.20166
G1 X-245.904 Y-402.657 E17.98771
G1 X-241.341 Y-405.309 E18.76627
G1 X-236.776 Y-407.854 E19.53727
G1 X-232.214 Y-410.291 E20.30025
G1 X-227.659 Y-412.619 E21.05487
G1 X-223.115 Y-414.839 E21.80091
G1 X-218.587 Y-416.95 E22.5379
G1 X-214.079 Y-418.952 E23.26554
G1 X-209.596 Y-420.844 E23.98335
G1 X-205.142 Y-422.626 E24.69103
G1 X-200.722 Y-424.298 E25.38815
G1 X-196.34 Y-425.859 E26.07437
G1 X-192.001 Y-427.309 E26.74925
G1 X-187.709 Y-428.648 E27.41249
G1 X-183.468 Y-429.876 E28.06381
G1 X-179.284 Y-430.991 E28.70257
G1 X-175.161 Y-431.995 E29.32856
G1 X-171.104 Y-432.887 E29.94134
G1 X-167.117 Y-433.666 E30.54062
G1 X-163.205 Y-434.333 E31.12604
G1 X-159.374 Y-434.887 E31.69706
G1 X-155.627 Y-435.329 E32.25364
G1 X-151.97 Y-435.659 E32.79531
G1 X-148.407 Y-435.877 E33.3219
G1 X-144.932 Y-435.983 E33.83476
G1 X-141.556 Y-435.994 E34.33278
G1 X-138.312 Y-435.929 E34.81143
G1 X-135.21 Y-435.791 E35.26948
G1 X-132.249 Y-435.581 E35.70738
G1 X-129.427 Y-435.303 E36.12569
G1 X-126.741 Y-434.96 E36.52514
G1 X-124.191 Y-434.555 E36.90603
G1 X-121.773 Y-434.091 E37.26924
G1 X-119.487 Y-433.571 E37.61508
G1 X-117.329 Y-432.998 E37.94446
G1 X-115.298 Y-432.375 E38.25785
G1 X-113.391 Y-431.707 E38.55593
G1 X-111.606 Y-430.996 E38.83937
G1 X-109.939 Y-430.246 E39.10903
G1 X-108.389 Y-429.46 E39.3654
G1 X-106.95 Y-428.642 E39.60958
G1 X-105.62 Y-427.794 E39.84227
G1 X-104.394 Y-426.92 E40.06438
G1 X-103.269 Y-426.022 E40.27673
G1 X-102.24 Y-425.102 E40.48035
G1 X-101.303 Y-424.162 E40.67614
G1 X-100.453 Y-423.203 E40.86518
G1 X-99.685 Y-422.227 E41.04839
G1 X-98.996 Y-421.234 E41.22668
G1 X-98.382 Y-420.223 E41.40117
G1 X-97.839 Y-419.196 E41.57254
G1 X-97.364 Y-418.15 E41.74201
G1 X-96.954 Y-417.087 E41.91008
G1 X-96.608 Y-416.006 E42.07752
G1 X-96.324 Y-414.907 E42.24497
G1 X-96.1 Y-413.79 E42.41303
G1 X-95.935 Y-412.656 E42.58208
G1 X-95.829 Y-411.506 E42.75245
G1 X-95.78 Y-410.341 E42.92446
G1 X-95.787 Y-409.162 E43.09839
G1 X-95.85 Y-407.973 E43.27404
G1 X-95.968 Y-406.774 E43.45177
G1 X-96.14 Y-405.568 E43.63148
G1 X-96.364 Y-404.357 E43.81315
G1 X-96.966 Y-401.933 E44.1816
G1 X-97.761 Y-399.522 E44.5561
G1 X-98.72 Y-397.186 E44.92861
G1 X-99.898 Y-394.795 E45.32181
G1 X-100.486 Y-393.738 E45.50024
G1 X-101.85 Y-391.542 E45.88159
G1 X-102.471 Y-390.694 E46.03664
G1 X-103.176 Y-389.883 E46.19516
G1 X-103.996 Y-389.076 E46.36488
G1 X-104.941 Y-388.269 E46.5482
G1 X-106.016 Y-387.461 E46.74658
G1 X-107.225 Y-386.651 E46.96126
G1 X-108.57 Y-385.84 E47.19295
G1 X-110.05 Y-385.028 E47.44198
G1 X-111.638 Y-384.225 E47.70449
G1 X-115.318 Y-382.551 E48.30088
G1 X-117.284 Y-381.728 E48.61529
G1 X-121.684 Y-379.997 E49.31279
G1 X-140.809 Y-372.96 E52.319
G1 X-150.788 Y-369.132 E53.89568
G1 X-157.869 Y-366.258 E55.02302
G1 X-161.704 Y-364.639 E55.6371
G1 X-169.415 Y-361.237 E56.8804
G1 X-173.54 Y-359.334 E57.55055
G1 X-177.726 Y-357.341 E58.23448
G1 X-181.946 Y-355.269 E58.928
G1 X-186.324 Y-353.05 E59.65206
G1 X-190.863 Y-350.675 E60.40777
G1 X-195.448 Y-348.197 E61.1766
G1 X-200.136 Y-345.583 E61.96841
G1 X-204.867 Y-342.86 E62.77366
G1 X-209.817 Y-339.921 E63.62289
G1 X-214.804 Y-336.865 E64.48571
G1 X-219.843 Y-333.682 E65.36494
G1 X-225.093 Y-330.262 E66.28924
G1 X-230.328 Y-326.748 E67.21935
G1 X-235.775 Y-322.982 E68.19623
G1 X-241.264 Y-319.073 E69.1903
G1 X-246.852 Y-314.976 E70.21245
G1 X-252.484 Y-310.728 E71.25311
G1 X-257.671 Y-306.706 E72.22137
G1 X-264.149 Y-301.553 E73.44246
G1 X-270.176 Y-296.613 E74.59205
G1 X-276.201 Y-291.541 E75.75385
G1 X-282.364 Y-286.047 E76.97181
G1 X-288.083 Y-280.484 E78.14876
G1 X-293.464 Y-274.769 E79.30672
G1 X-298.374 Y-269.076 E80.41574
G1 X-303.236 Y-262.905 E81.57468
G1 X-307.635 Y-256.769 E82.68843
G1 X-311.716 Y-250.505 E83.79129
G1 X-315.484 Y-244.121 E84.88485
G1 X-318.848 Y-237.814 E85.93932
G1 X-322.103 Y-231.017 E87.05105
G1 X-324.964 Y-224.309 E88.12685
G1 X-327.535 Y-217.507 E89.19955
G1 X-329.82 Y-210.616 E90.27053
G1 X-331.776 Y-203.829 E91.31249
G1 X-333.558 Y-196.594 E92.41168
G1 X-335.023 Y-189.474 E93.48401
G1 X-336.227 Y-182.291 E94.55842
G1 X-337.157 Y-175.218 E95.6108
G1 X-337.875 Y-167.753 E96.71711
G1 X-338.332 Y-160.411 E97.80228
G1 X-338.549 Y-153.182 E98.86917
G1 X-338.54 Y-145.608 E99.98647
G1 X-338.303 Y-138.157 E101.08618
G1 X-337.858 Y-130.819 E102.17066
G1 X-337.18 Y-123.184 E103.30139
G1 X-336.304 Y-115.673 E104.41691
G1 X-335.247 Y-108.275 E105.51933
G1 X-333.956 Y-100.627 E106.66351
G1 X-332.494 Y-93.102 E107.79434
G1 X-330.874 Y-85.694 E108.91298
G1 X-329.025 Y-78.077 E110.06926
G1 X-327.029 Y-70.586 E111.21287
G1 X-324.866 Y-63.116 E112.3601
G1 X-322.542 Y-55.674 E113.51022
G1 X-320.063 Y-48.264 E114.66288
G1 X-317.438 Y-40.901 E115.81602
